X:0489
T:La Royal Loverie Gavot.
R:Gavotte
M:2/4
L:1/16
Q:1/4=108
I: :: ::
Z:Jack Campin * www.campin.me.uk * 2009
K:D
d2cd e2dc|d2A2 F2A2|f2ef g2fe|   f2d2 A2d2|\
a4   b4  |c4   d4  |f2ef g2f2|{f}e8      ::
a2ga b2b2|G2b2 E2b2|g2fg a2a2|   F2a2 D2a2|\
g2ef g2g2|E2g2 A2g2|f2ed e2c2|   d4   d4 :|
<end>
<start>
